!!!!SEGMENT: pl-sa--549-a-ix-29--029_anonim--polonaise.krn
!!!cenid: 18xx:483
!!!COM: Anonim
!!!COM-rismID: pe30004985
!!!CDT:
!!!CNT:
!!!OTL: Polonaise
!!!PDT:
!!!AGN: Secular; Polonaise
!!!YEC: Copyright 2022 Narodowy Instytut Fryderyka Chopina (https://polishscores.org)
!!!YEM: License CC-BY-4.0 (https://creativecommons.org/licenses/by/4.0)
!!!SMS-siglum: PL-SA
!!!SMS-shelfmark: 549/A IX 29
!!!SMS-shelfwork: 029 W
!!!SMS-variant:
!!!SMS-altvar:
!!!NIFC-rismSourceID: 1001068916
!!!NIFC-rismChildID: 1001068916
!!!NIFC-islandoraID: none
!!!URL-pdf-islandora:
!!!URL-scan: https://bc.bdsandomierz.pl/dlibra/publication/1441/edition/1409/content @EN{Scan in the Sandomierz Diocese Digital Library} @PL{Skany w portalu Cyfrowa Biblioteka Diecezjalna w Sandomierzu}
!!!IIIF:
!!!ONB-nifc: Str. 22, s. 1-4
!!!AIN: 1 empty
!!!key:
**kern	**kern
*part1	*part1
*staff2	*staff1
*Iempty	*Ipiano
*	*I"Piano
*	*I'Pno.
*clefF4	*clefG2
*k[b-]	*k[b-]
*d:	*d:
*M3/4	*M3/4
*>[A,A,B,B,C,C,D,D,A]	*>[A,A,B,B,C,C,D,D,A]
=1	=1
*>A	*>A
!	!LO:TX:a:Bi:t=Polonaise:rj
8FL 8D\	8a\L
8A\J	8dd\J
*rep	*
8FL 8D\	8r
8A\J	8dd\L
*Xrep	*
*rep	*
8FL 8D\	8dd\
8A\J	8dd\J
*Xrep	*
=2	=2
*rep	*
8FL 8D\	8.ff\L
8A\J	.
.	16ee\Jk
8FL 8D\	4dd\
8A\J	.
8FL 8D\	4r
8A\J	.
*Xrep	*
=3	=3
8EL 8C#X\	8a\L
8A\J	8ee\J
*rep	*
8EL 8C#\	8r
8A\J	8ee\L
*Xrep	*
*rep	*
8EL 8C#\	8ee\
8A\J	8ee\J
*Xrep	*
=4	=4
*rep	*
8EL 8C#X\	8.gg\L
8A\J	.
.	16ff\Jk
8EL 8C#\	4ee\
8A\J	.
8EL 8C#\	4r
8A\J	.
*Xrep	*
=5||	=5||
16D\LL	4.ff\
16A\	.
16F\	.
16A\JJ	.
*rep	*
16D\LL	.
16A\	.
16F\	16ee\LL
16A\JJ	16dd\JJ
*Xrep	*
16E\LL	8cc#X\L
16A\	.
16G\	8ee\J
16A\JJ	.
=6	=6
16F\LL	8dd\L
16d\	.
16A\	16ee\L
16d\JJ	16ff\JJ
*rep	*
16F\LL	16gg\LL
16d\	16aa\
16A\	16bbn\
16d\JJ	16ccc#X\JJ
*Xrep	*
16F#X\LL	[4ddd\
16d\	.
16A\	.
16d\JJ	.
=7	=7
4G\	8ddd\L]
.	8ccc#X\
4r	8bb-\
.	8aa\
4r	8gg\
.	8ff\J
=8	=8
!LO:TX:a:t=P:problem=mixed beam	!
8A\L	16ee\LL
.	16gg\
8AA/J	16ff\
.	16ee\JJ
8r	4ee 4cc#X\
8AA/	.
4D\	8dd\
.	8r
!!LO:LB:g=original
=9:|!|:	=9:|!|:
*>B	*>B
8AL 8F\	8cc\L
8c\J	8aaJ 8ff\
*rep	*
8AL 8F\	8r
8c\J	8aaL 8ff\
*Xrep	*
*rep	*
8AL 8F\	8aa 8ff\
8c\J	8aaJ 8ff\
*Xrep	*
=10	=10
*rep	*
8AL 8F\	8.cccL 8.aa\
8c\J	.
.	16bb-Jk 16gg\
8AL 8F\	4aa 4ff\
8c\J	.
8AL 8F\	4r
8c\J	.
*Xrep	*
=11	=11
8GL 8E\	8cc\L
8c\J	8bb-J 8gg\
*rep	*
8GL 8E\	8r
8c\J	8bb-L 8gg\
*Xrep	*
8AL 8F\	8aa 8ff\
8c\J	8aaJ 8ff\
=12	=12
8C\L	8ggL 8ee\
8E\	8ggJ 8ee\
8G\	8r
8G#X\	8gg#X\L
8A\	8aa\
!	!LO:TX:b:Bi:t=D'al Segno
!	!LO:TX:a:Bi:t=[segno]:problem=znak segno na kresce taktowej
!LO:TX:a:Bi:t=[segno]:problem=znak segno na kresce taktowej	!
8E\J	8ee\J
!!LO:LB:g=original
=13||	=13||
*>C	*>C
*k[f#c#]	*k[f#c#]
*M3/4	*M3/4
!	!LO:TX:a:Bi:t=Trio:rj
8d\L	4.ff#\
8A\	.
8d\	.
8A\	8dd\L
8d\	8gg\
8A\J	8ee\J
=14	=14
*rep	*
8d\L	4.aa\
8A\	.
8d\	.
8A\	16gg\LL
.	16ff#\JJ
8d\	16aa\LL
.	16gg\
8A\J	16ff#\
.	16ee\JJ
*Xrep	*
=15	=15
*rep	*
8d\L	8ff#\
8A\	4ff#\
8d\	.
8A\	8dd\L
8d\	8gg\
8A\J	8ee\J
*Xrep	*
=16	=16
8d\L	8.aa\L
8A\	.
.	16ff#\Jk
8e\	16aa\LL
.	16gg\
8A\J	16ff#\
.	16ee\JJ
4d\	4dd\
=17:|!|:	=17:|!|:
*>D	*>D
16C#\LL	4.a 4.g 4.e/
16A\	.
16E\	.
16A\JJ	.
*rep	*
16C#\LL	.
16A\	.
16E\	8aL 8g 8e/
16A\JJ	.
*Xrep	*
*rep	*
16C#\LL	8a 8g 8e/
16A\	.
16E\	8aJ 8g 8e/
16A\JJ	.
*Xrep	*
=18	=18
16D\LL	16f#\LL
16A\	16a\
16F#\	16b\
16A\JJ	16cc#\JJ
*rep	*
16D\LL	16dd\LL
16A\	16cc#\
16F#\	16dd\
16A\JJ	16ee\JJ
*Xrep	*
*rep	*
16D\LL	8.ff#\L
16A\	.
16F#\	.
16A\JJ	16dd\Jk
*Xrep	*
=19	=19
16C#\LL	4.a 4.g 4.e/
16A\	.
16E\	.
16A\JJ	.
!!LO:LB:g=original
16C#\LL	.
16A\	.
16E\	8aL 8g 8e/
16A\JJ	.
*rep	*
16C#\LL	8a 8g 8e/
16A\	.
16E\	8aJ 8g 8e/
16A\JJ	.
*Xrep	*
=20	=20
8E\L	8e/L
8d\	8dd/
8B\	8b/
8G#X\J	8g#X/J
4A\	4a/
==	==
*-	*-
!!!system-decoration: {(s1,s2)}
!!!RDF**kern: > = above
!!!RDF**kern: < = below
!!!RDF**kern: | = vertical stroke
!!!RDF**kern: N = linked
!!!RDF**kern: i = editorial accidental
!!!RDF**kern: l = terminal long
!!!ENC: Marcin Jachim
!!!END: 2020-06-17
!!!EED: Wojciech Jakubiak-Danek
!!!EEV: 2022-01-09
